report_00007_2020-12-11T15:55:29.892Z/bootup-time/comparison/sorted/5_vs_6.svg

<svg width="640" height="500" xmlns="http://www.w3.org/2000/svg" xmlns:xlink="http://www.w3.org/1999/xlink"><path fill="#fff" d="M0 0h640v500H0z"/><defs><path id="d" stroke-width=".222" stroke="currentColor" d="M-1-1h2v2h-2z"/><path id="b" stroke-width=".222" stroke="currentColor" d="M0-1.33l-1.33 2h2.66z"/><path id="f" stroke-width=".222" stroke="currentColor" d="M0 1.33L1.265.411.782-1.067l-1.564-.009-.483 1.487z"/><use xlink:href="#b" id="c" stroke="currentColor" transform="rotate(180)"/><use xlink:href="#d" id="e" stroke="currentColor" transform="rotate(45)"/><circle id="a" stroke-width=".222" stroke="currentColor" cx="0" cy="0" r="1"/></defs><g fill="none" color="#000" stroke="currentColor"><path stroke="#000" d="M45.6 382h9m560.4 0h-9"/><text transform="translate(37.3 385.9)" stroke="none" fill="#000" font-family="Arial" font-size="12" text-anchor="end"><tspan>40</tspan></text></g><g fill="none" color="#000" stroke="currentColor"><path stroke="#000" d="M45.6 344.5h9m560.4 0h-9"/><text transform="translate(37.3 348.4)" stroke="none" fill="#000" font-family="Arial" font-size="12" text-anchor="end"><tspan>41</tspan></text></g><g fill="none" color="#000" stroke="currentColor"><path stroke="#000" d="M45.6 307.1h9m560.4 0h-9"/><text transform="translate(37.3 311)" stroke="none" fill="#000" font-family="Arial" font-size="12" text-anchor="end"><tspan>42</tspan></text></g><g fill="none" color="#000" stroke="currentColor"><path stroke="#000" d="M45.6 269.7h9m560.4 0h-9"/><text transform="translate(37.3 273.6)" stroke="none" fill="#000" font-family="Arial" font-size="12" text-anchor="end"><tspan>43</tspan></text></g><g fill="none" color="#000" stroke="currentColor"><path stroke="#000" d="M45.6 232.2h9m560.4 0h-9"/><text transform="translate(37.3 236.1)" stroke="none" fill="#000" font-family="Arial" font-size="12" text-anchor="end"><tspan>44</tspan></text></g><g fill="none" color="#000" stroke="currentColor"><path stroke="#000" d="M45.6 194.8h9m560.4 0h-9"/><text transform="translate(37.3 198.7)" stroke="none" fill="#000" font-family="Arial" font-size="12" text-anchor="end"><tspan>45</tspan></text></g><g fill="none" color="#000" stroke="currentColor"><path stroke="#000" d="M45.6 157.4h9m560.4 0h-9"/><text transform="translate(37.3 161.3)" stroke="none" fill="#000" font-family="Arial" font-size="12" text-anchor="end"><tspan>46</tspan></text></g><g fill="none" color="#000" stroke="currentColor"><path stroke="#000" d="M45.6 119.9h9m560.4 0h-9"/><text transform="translate(37.3 123.8)" stroke="none" fill="#000" font-family="Arial" font-size="12" text-anchor="end"><tspan>47</tspan></text></g><g fill="none" color="#000" stroke="currentColor"><path stroke="#000" d="M45.6 82.5h9m560.4 0h-9"/><text transform="translate(37.3 86.4)" stroke="none" fill="#000" font-family="Arial" font-size="12" text-anchor="end"><tspan>48</tspan></text></g><g fill="none" color="#000" stroke="currentColor"><path stroke="#000" d="M45.6 45.1h9m560.4 0h-9"/><text transform="translate(37.3 49)" stroke="none" fill="#000" font-family="Arial" font-size="12" text-anchor="end"><tspan>49</tspan></text></g><g fill="none" color="#000" stroke="currentColor"><path stroke="#000" d="M45.6 392v-9m0-364.9v9"/><text transform="translate(45.6 413.9)" stroke="none" fill="#000" font-family="Arial" font-size="12" text-anchor="middle"><tspan>0</tspan></text></g><g fill="none" color="#000" stroke="currentColor"><path stroke="#000" d="M103.1 392v-9m0-364.9v9"/><text transform="translate(103.1 413.9)" stroke="none" fill="#000" font-family="Arial" font-size="12" text-anchor="middle"><tspan>10</tspan></text></g><g fill="none" color="#000" stroke="currentColor"><path stroke="#000" d="M160.6 392v-9m0-364.9v9"/><text transform="translate(160.6 413.9)" stroke="none" fill="#000" font-family="Arial" font-size="12" text-anchor="middle"><tspan>20</tspan></text></g><g fill="none" color="#000" stroke="currentColor"><path stroke="#000" d="M218.1 392v-9m0-364.9v9"/><text transform="translate(218.1 413.9)" stroke="none" fill="#000" font-family="Arial" font-size="12" text-anchor="middle"><tspan>30</tspan></text></g><g fill="none" color="#000" stroke="currentColor"><path stroke="#000" d="M275.7 392v-9m0-364.9v9"/><text transform="translate(275.7 413.9)" stroke="none" fill="#000" font-family="Arial" font-size="12" text-anchor="middle"><tspan>40</tspan></text></g><g fill="none" color="#000" stroke="currentColor"><path stroke="#000" d="M333.2 392v-9m0-364.9v9"/><text transform="translate(333.2 413.9)" stroke="none" fill="#000" font-family="Arial" font-size="12" text-anchor="middle"><tspan>50</tspan></text></g><g fill="none" color="#000" stroke="currentColor"><path stroke="#000" d="M390.7 392v-9m0-364.9v9"/><text transform="translate(390.7 413.9)" stroke="none" fill="#000" font-family="Arial" font-size="12" text-anchor="middle"><tspan>60</tspan></text></g><g fill="none" color="#000" stroke="currentColor"><path stroke="#000" d="M448.2 392v-9m0-364.9v9"/><text transform="translate(448.2 413.9)" stroke="none" fill="#000" font-family="Arial" font-size="12" text-anchor="middle"><tspan>70</tspan></text></g><g fill="none" color="#000" stroke="currentColor"><path stroke="#000" d="M505.7 392v-9m0-364.9v9"/><text transform="translate(505.7 413.9)" stroke="none" fill="#000" font-family="Arial" font-size="12" text-anchor="middle"><tspan>80</tspan></text></g><g fill="none" color="#000" stroke="currentColor"><path stroke="#000" d="M563.2 392v-9m0-364.9v9"/><text transform="translate(563.2 413.9)" stroke="none" fill="#000" font-family="Arial" font-size="12" text-anchor="middle"><tspan>90</tspan></text></g><path stroke="#000" d="M45.6 18.1V392H615V18.1H45.6z" fill="none" color="#000"/><text transform="translate(429.5 431.9)" stroke="none" fill="#000" font-family="Arial" font-size="12" text-anchor="end" color="#000"><tspan>pages+cached+noexternal</tspan></text><path stroke="#9400D3" d="M437.8 428H480M45.6 307.2l5.8-18.2 5.7-11.7 5.8-6 5.7-.1 5.8-4.8 5.7-11.7 5.8-.2 5.7-3.9 5.8-.4 5.7-.6 5.8-2.2 5.7-1.2 5.8-1.8 5.7-.8 5.8-.3 5.7-.4 5.8-2.3 5.7-.3 5.8-.3h5.7l5.8-.9 5.7-.1 5.8-.2 5.7-1.5 5.8-.6h5.7l5.8-.4 5.7-6.8 5.8-.1 5.7-.2 5.8-1.8 5.7-.1 5.8-.3 5.8-1.2 5.7-1.2 5.8-2.7 5.7-.3 5.8-1.2 5.7-.2h5.8l5.7-.3 5.8-1 5.7-.3 5.8-.4 5.7-.5 5.8-.1 5.7-1.1 5.8-.3 5.7-.6 5.8-.9 5.7-.1 5.8-.2 5.7-.6 5.8-.1 5.7-.8 5.8-.9 5.7-2.5 5.8-.2 5.7-.9 5.8-.1 5.7-.3 5.8-1.7 5.7-.3 5.8-1.2h5.7l5.8-.6 5.8-.7 5.7-.5 5.8-.4 5.7-1.8 5.8-1.1 5.7-.3h5.8l5.7-.4 5.8-1.4 5.7-.6 5.8-.7 5.7-1.2 5.8-1.7 5.7-1.6 5.8-.9 5.7-2.5 5.8-.2 5.7-.3 5.8-.6 5.7-1.5 5.8-.6 5.7-3.7 5.8-3.2 5.7-2.8 5.8-.9 5.7-.3 5.8-1.5 5.7-9.3 5.8-2.4 5.7-12.9h5.8l5.7-10.6 5.8-26.5" fill="none" color="#000"/><text transform="translate(429.5 449.9)" stroke="none" fill="#000" font-family="Arial" font-size="12" text-anchor="end" color="#000"><tspan>pages+cached+noexternal+nofonts</tspan></text><path stroke="#009E73" d="M437.8 446H480M45.6 384.8l5.8-79.1 5.7-19 5.8-7.8 5.7-10.6 5.8-9.9 5.7-2.4 5.8-8.1 5.7-3.2 5.8-2.9 5.7-.7 5.8-1.7 5.7-2.8 5.8-.2 5.7-.3 5.8-.6 5.7-3.1 5.8-.3 5.7-.3 5.8-.9 5.7-.2 5.8-2.4 5.7-4h5.8l5.7-.2 5.8-.4 5.7-2.4 5.8-.3 5.7-.3 5.8-2.7 5.7-.7 5.8-.8 5.7-.4 5.8-.5 5.8-.9 5.7-1 5.8-2.1h5.7l5.8-.9 5.7-.8 5.8-.1 5.7-1.4 5.8-.9 5.7-.4 5.8-1.2 5.7-1.1 5.8-.4 5.7-.6 5.8-.5 5.7-2.7 5.8-.7 5.7-3.5 5.8-.1 5.7-2.1 5.8-.8 5.7-.1 5.8-3.7 5.7-1.4 5.8-.1 5.7-.6 5.8-1.8 5.7-.3 5.8-1.1 5.7-.9 5.8-1.3 5.7-1.8 5.8-1.4 5.8-.1 5.7-2.1 5.8-1.5 5.7-1.2 5.8-.6 5.7-1.1 5.8-3.4 5.7-1.7 5.8-.4 5.7-1.8 5.8-1.1 5.7-.3 5.8-1.9 5.7-3.3 5.8-1.5 5.7-1 5.8-1.4 5.7-2.4 5.8-3.7h5.7l5.8-.6 5.7-.2 5.8-.4 5.7-.6 5.8-5.9 5.7-3.3 5.8-3.8 5.7-11.1 5.8-1.7 5.7-15.3 5.8-6.7 5.7-17.1 5.8-56.4" fill="none" color="#000"/><text transform="translate(429.5 467.9)" stroke="none" fill="#000" font-family="Arial" font-size="12" text-anchor="end" color="#000"><tspan>score p10=1282</tspan></text><path stroke="#56B4E9" d="M437.8 464H480" fill="none" color="#000"/><g><text transform="translate(429.5 485.9)" stroke="none" fill="#000" font-family="Arial" font-size="12" text-anchor="end" color="#000"><tspan>score median=3500</tspan></text><path stroke="#E69F00" d="M437.8 482H480" fill="none" color="#000"/></g><g fill="none" color="#000" stroke="currentColor"><path stroke="#000" d="M45.6 18.1V392H615V18.1H45.6z"/></g></svg>

<?xml version="1.0" encoding="utf-8"  standalone="no"?>
<svg 
 width="640" height="500"
 viewBox="0 0 640 500"
 xmlns="http://www.w3.org/2000/svg"
 xmlns:xlink="http://www.w3.org/1999/xlink"
>

<title>Gnuplot</title>
<desc>Produced by GNUPLOT 5.4 patchlevel 0 </desc>

<g id="gnuplot_canvas">

<rect x="0" y="0" width="640" height="500" fill="#ffffff"/>
<defs>

	<circle id='gpDot' r='0.5' stroke-width='0.5' stroke='currentColor'/>
	<path id='gpPt0' stroke-width='0.222' stroke='currentColor' d='M-1,0 h2 M0,-1 v2'/>
	<path id='gpPt1' stroke-width='0.222' stroke='currentColor' d='M-1,-1 L1,1 M1,-1 L-1,1'/>
	<path id='gpPt2' stroke-width='0.222' stroke='currentColor' d='M-1,0 L1,0 M0,-1 L0,1 M-1,-1 L1,1 M-1,1 L1,-1'/>
	<rect id='gpPt3' stroke-width='0.222' stroke='currentColor' x='-1' y='-1' width='2' height='2'/>
	<rect id='gpPt4' stroke-width='0.222' stroke='currentColor' fill='currentColor' x='-1' y='-1' width='2' height='2'/>
	<circle id='gpPt5' stroke-width='0.222' stroke='currentColor' cx='0' cy='0' r='1'/>
	<use xlink:href='#gpPt5' id='gpPt6' fill='currentColor' stroke='none'/>
	<path id='gpPt7' stroke-width='0.222' stroke='currentColor' d='M0,-1.33 L-1.33,0.67 L1.33,0.67 z'/>
	<use xlink:href='#gpPt7' id='gpPt8' fill='currentColor' stroke='none'/>
	<use xlink:href='#gpPt7' id='gpPt9' stroke='currentColor' transform='rotate(180)'/>
	<use xlink:href='#gpPt9' id='gpPt10' fill='currentColor' stroke='none'/>
	<use xlink:href='#gpPt3' id='gpPt11' stroke='currentColor' transform='rotate(45)'/>
	<use xlink:href='#gpPt11' id='gpPt12' fill='currentColor' stroke='none'/>
	<path id='gpPt13' stroke-width='0.222' stroke='currentColor' d='M0,1.330 L1.265,0.411 L0.782,-1.067 L-0.782,-1.076 L-1.265,0.411 z'/>
	<use xlink:href='#gpPt13' id='gpPt14' fill='currentColor' stroke='none'/>
	<filter id='textbox' filterUnits='objectBoundingBox' x='0' y='0' height='1' width='1'>
	  <feFlood flood-color='#FFFFFF' flood-opacity='1' result='bgnd'/>
	  <feComposite in='SourceGraphic' in2='bgnd' operator='atop'/>
	</filter>
	<filter id='greybox' filterUnits='objectBoundingBox' x='0' y='0' height='1' width='1'>
	  <feFlood flood-color='lightgrey' flood-opacity='1' result='grey'/>
	  <feComposite in='SourceGraphic' in2='grey' operator='atop'/>
	</filter>
</defs>
<g fill="none" color="#FFFFFF" stroke="black" stroke-width="1.00" stroke-linecap="butt" stroke-linejoin="miter">
</g>
<g fill="none" color="black" stroke="currentColor" stroke-width="1.00" stroke-linecap="butt" stroke-linejoin="miter">
	<path stroke='black'  d='M45.6,382.0 L54.6,382.0 M615.0,382.0 L606.0,382.0  '/>	<g transform="translate(37.3,385.9)" stroke="none" fill="black" font-family="Arial" font-size="12.00"  text-anchor="end">
		<text><tspan font-family="Arial" > 40</tspan></text>
	</g>
</g>
<g fill="none" color="black" stroke="currentColor" stroke-width="1.00" stroke-linecap="butt" stroke-linejoin="miter">
	<path stroke='black'  d='M45.6,344.5 L54.6,344.5 M615.0,344.5 L606.0,344.5  '/>	<g transform="translate(37.3,348.4)" stroke="none" fill="black" font-family="Arial" font-size="12.00"  text-anchor="end">
		<text><tspan font-family="Arial" > 41</tspan></text>
	</g>
</g>
<g fill="none" color="black" stroke="currentColor" stroke-width="1.00" stroke-linecap="butt" stroke-linejoin="miter">
	<path stroke='black'  d='M45.6,307.1 L54.6,307.1 M615.0,307.1 L606.0,307.1  '/>	<g transform="translate(37.3,311.0)" stroke="none" fill="black" font-family="Arial" font-size="12.00"  text-anchor="end">
		<text><tspan font-family="Arial" > 42</tspan></text>
	</g>
</g>
<g fill="none" color="black" stroke="currentColor" stroke-width="1.00" stroke-linecap="butt" stroke-linejoin="miter">
	<path stroke='black'  d='M45.6,269.7 L54.6,269.7 M615.0,269.7 L606.0,269.7  '/>	<g transform="translate(37.3,273.6)" stroke="none" fill="black" font-family="Arial" font-size="12.00"  text-anchor="end">
		<text><tspan font-family="Arial" > 43</tspan></text>
	</g>
</g>
<g fill="none" color="black" stroke="currentColor" stroke-width="1.00" stroke-linecap="butt" stroke-linejoin="miter">
	<path stroke='black'  d='M45.6,232.2 L54.6,232.2 M615.0,232.2 L606.0,232.2  '/>	<g transform="translate(37.3,236.1)" stroke="none" fill="black" font-family="Arial" font-size="12.00"  text-anchor="end">
		<text><tspan font-family="Arial" > 44</tspan></text>
	</g>
</g>
<g fill="none" color="black" stroke="currentColor" stroke-width="1.00" stroke-linecap="butt" stroke-linejoin="miter">
	<path stroke='black'  d='M45.6,194.8 L54.6,194.8 M615.0,194.8 L606.0,194.8  '/>	<g transform="translate(37.3,198.7)" stroke="none" fill="black" font-family="Arial" font-size="12.00"  text-anchor="end">
		<text><tspan font-family="Arial" > 45</tspan></text>
	</g>
</g>
<g fill="none" color="black" stroke="currentColor" stroke-width="1.00" stroke-linecap="butt" stroke-linejoin="miter">
	<path stroke='black'  d='M45.6,157.4 L54.6,157.4 M615.0,157.4 L606.0,157.4  '/>	<g transform="translate(37.3,161.3)" stroke="none" fill="black" font-family="Arial" font-size="12.00"  text-anchor="end">
		<text><tspan font-family="Arial" > 46</tspan></text>
	</g>
</g>
<g fill="none" color="black" stroke="currentColor" stroke-width="1.00" stroke-linecap="butt" stroke-linejoin="miter">
	<path stroke='black'  d='M45.6,119.9 L54.6,119.9 M615.0,119.9 L606.0,119.9  '/>	<g transform="translate(37.3,123.8)" stroke="none" fill="black" font-family="Arial" font-size="12.00"  text-anchor="end">
		<text><tspan font-family="Arial" > 47</tspan></text>
	</g>
</g>
<g fill="none" color="black" stroke="currentColor" stroke-width="1.00" stroke-linecap="butt" stroke-linejoin="miter">
	<path stroke='black'  d='M45.6,82.5 L54.6,82.5 M615.0,82.5 L606.0,82.5  '/>	<g transform="translate(37.3,86.4)" stroke="none" fill="black" font-family="Arial" font-size="12.00"  text-anchor="end">
		<text><tspan font-family="Arial" > 48</tspan></text>
	</g>
</g>
<g fill="none" color="black" stroke="currentColor" stroke-width="1.00" stroke-linecap="butt" stroke-linejoin="miter">
	<path stroke='black'  d='M45.6,45.1 L54.6,45.1 M615.0,45.1 L606.0,45.1  '/>	<g transform="translate(37.3,49.0)" stroke="none" fill="black" font-family="Arial" font-size="12.00"  text-anchor="end">
		<text><tspan font-family="Arial" > 49</tspan></text>
	</g>
</g>
<g fill="none" color="black" stroke="currentColor" stroke-width="1.00" stroke-linecap="butt" stroke-linejoin="miter">
	<path stroke='black'  d='M45.6,392.0 L45.6,383.0 M45.6,18.1 L45.6,27.1  '/>	<g transform="translate(45.6,413.9)" stroke="none" fill="black" font-family="Arial" font-size="12.00"  text-anchor="middle">
		<text><tspan font-family="Arial" > 0</tspan></text>
	</g>
</g>
<g fill="none" color="black" stroke="currentColor" stroke-width="1.00" stroke-linecap="butt" stroke-linejoin="miter">
	<path stroke='black'  d='M103.1,392.0 L103.1,383.0 M103.1,18.1 L103.1,27.1  '/>	<g transform="translate(103.1,413.9)" stroke="none" fill="black" font-family="Arial" font-size="12.00"  text-anchor="middle">
		<text><tspan font-family="Arial" > 10</tspan></text>
	</g>
</g>
<g fill="none" color="black" stroke="currentColor" stroke-width="1.00" stroke-linecap="butt" stroke-linejoin="miter">
	<path stroke='black'  d='M160.6,392.0 L160.6,383.0 M160.6,18.1 L160.6,27.1  '/>	<g transform="translate(160.6,413.9)" stroke="none" fill="black" font-family="Arial" font-size="12.00"  text-anchor="middle">
		<text><tspan font-family="Arial" > 20</tspan></text>
	</g>
</g>
<g fill="none" color="black" stroke="currentColor" stroke-width="1.00" stroke-linecap="butt" stroke-linejoin="miter">
	<path stroke='black'  d='M218.1,392.0 L218.1,383.0 M218.1,18.1 L218.1,27.1  '/>	<g transform="translate(218.1,413.9)" stroke="none" fill="black" font-family="Arial" font-size="12.00"  text-anchor="middle">
		<text><tspan font-family="Arial" > 30</tspan></text>
	</g>
</g>
<g fill="none" color="black" stroke="currentColor" stroke-width="1.00" stroke-linecap="butt" stroke-linejoin="miter">
	<path stroke='black'  d='M275.7,392.0 L275.7,383.0 M275.7,18.1 L275.7,27.1  '/>	<g transform="translate(275.7,413.9)" stroke="none" fill="black" font-family="Arial" font-size="12.00"  text-anchor="middle">
		<text><tspan font-family="Arial" > 40</tspan></text>
	</g>
</g>
<g fill="none" color="black" stroke="currentColor" stroke-width="1.00" stroke-linecap="butt" stroke-linejoin="miter">
	<path stroke='black'  d='M333.2,392.0 L333.2,383.0 M333.2,18.1 L333.2,27.1  '/>	<g transform="translate(333.2,413.9)" stroke="none" fill="black" font-family="Arial" font-size="12.00"  text-anchor="middle">
		<text><tspan font-family="Arial" > 50</tspan></text>
	</g>
</g>
<g fill="none" color="black" stroke="currentColor" stroke-width="1.00" stroke-linecap="butt" stroke-linejoin="miter">
	<path stroke='black'  d='M390.7,392.0 L390.7,383.0 M390.7,18.1 L390.7,27.1  '/>	<g transform="translate(390.7,413.9)" stroke="none" fill="black" font-family="Arial" font-size="12.00"  text-anchor="middle">
		<text><tspan font-family="Arial" > 60</tspan></text>
	</g>
</g>
<g fill="none" color="black" stroke="currentColor" stroke-width="1.00" stroke-linecap="butt" stroke-linejoin="miter">
	<path stroke='black'  d='M448.2,392.0 L448.2,383.0 M448.2,18.1 L448.2,27.1  '/>	<g transform="translate(448.2,413.9)" stroke="none" fill="black" font-family="Arial" font-size="12.00"  text-anchor="middle">
		<text><tspan font-family="Arial" > 70</tspan></text>
	</g>
</g>
<g fill="none" color="black" stroke="currentColor" stroke-width="1.00" stroke-linecap="butt" stroke-linejoin="miter">
	<path stroke='black'  d='M505.7,392.0 L505.7,383.0 M505.7,18.1 L505.7,27.1  '/>	<g transform="translate(505.7,413.9)" stroke="none" fill="black" font-family="Arial" font-size="12.00"  text-anchor="middle">
		<text><tspan font-family="Arial" > 80</tspan></text>
	</g>
</g>
<g fill="none" color="black" stroke="currentColor" stroke-width="1.00" stroke-linecap="butt" stroke-linejoin="miter">
	<path stroke='black'  d='M563.2,392.0 L563.2,383.0 M563.2,18.1 L563.2,27.1  '/>	<g transform="translate(563.2,413.9)" stroke="none" fill="black" font-family="Arial" font-size="12.00"  text-anchor="middle">
		<text><tspan font-family="Arial" > 90</tspan></text>
	</g>
</g>
<g fill="none" color="black" stroke="currentColor" stroke-width="1.00" stroke-linecap="butt" stroke-linejoin="miter">
</g>
<g fill="none" color="black" stroke="currentColor" stroke-width="1.00" stroke-linecap="butt" stroke-linejoin="miter">
	<path stroke='black'  d='M45.6,18.1 L45.6,392.0 L615.0,392.0 L615.0,18.1 L45.6,18.1 Z  '/></g>
<g fill="none" color="black" stroke="currentColor" stroke-width="1.00" stroke-linecap="butt" stroke-linejoin="miter">
</g>
	<g id="gnuplot_plot_1" ><title>pages+cached+noexternal</title>
<g fill="none" color="black" stroke="currentColor" stroke-width="1.00" stroke-linecap="butt" stroke-linejoin="miter">
	<g transform="translate(429.5,431.9)" stroke="none" fill="black" font-family="Arial" font-size="12.00"  text-anchor="end">
		<text><tspan font-family="Arial" >pages+cached+noexternal</tspan></text>
	</g>
</g>
<g fill="none" color="black" stroke="currentColor" stroke-width="1.00" stroke-linecap="butt" stroke-linejoin="miter">
	<path stroke='rgb(148,   0, 211)'  d='M437.8,428.0 L480.0,428.0 M45.6,307.2 L51.4,289.0 L57.1,277.3 L62.9,271.3 L68.6,271.2 L74.4,266.4
		L80.1,254.7 L85.9,254.5 L91.6,250.6 L97.4,250.2 L103.1,249.6 L108.9,247.4 L114.6,246.2 L120.4,244.4
		L126.1,243.6 L131.9,243.3 L137.6,242.9 L143.4,240.6 L149.1,240.3 L154.9,240.0 L160.6,240.0 L166.4,239.1
		L172.1,239.0 L177.9,238.8 L183.6,237.3 L189.4,236.7 L195.1,236.7 L200.9,236.3 L206.6,229.5 L212.4,229.4
		L218.1,229.2 L223.9,227.4 L229.6,227.3 L235.4,227.0 L241.2,225.8 L246.9,224.6 L252.7,221.9 L258.4,221.6
		L264.2,220.4 L269.9,220.2 L275.7,220.2 L281.4,219.9 L287.2,218.9 L292.9,218.6 L298.7,218.2 L304.4,217.7
		L310.2,217.6 L315.9,216.5 L321.7,216.2 L327.4,215.6 L333.2,214.7 L338.9,214.6 L344.7,214.4 L350.4,213.8
		L356.2,213.7 L361.9,212.9 L367.7,212.0 L373.4,209.5 L379.2,209.3 L384.9,208.4 L390.7,208.3 L396.4,208.0
		L402.2,206.3 L407.9,206.0 L413.7,204.8 L419.4,204.8 L425.2,204.2 L431.0,203.5 L436.7,203.0 L442.5,202.6
		L448.2,200.8 L454.0,199.7 L459.7,199.4 L465.5,199.4 L471.2,199.0 L477.0,197.6 L482.7,197.0 L488.5,196.3
		L494.2,195.1 L500.0,193.4 L505.7,191.8 L511.5,190.9 L517.2,188.4 L523.0,188.2 L528.7,187.9 L534.5,187.3
		L540.2,185.8 L546.0,185.2 L551.7,181.5 L557.5,178.3 L563.2,175.5 L569.0,174.6 L574.7,174.3 L580.5,172.8
		L586.2,163.5 L592.0,161.1 L597.7,148.2 L603.5,148.2 L609.2,137.6 L615.0,111.1  '/></g>
	</g>
	<g id="gnuplot_plot_2" ><title>pages+cached+noexternal+nofonts</title>
<g fill="none" color="black" stroke="currentColor" stroke-width="1.00" stroke-linecap="butt" stroke-linejoin="miter">
	<g transform="translate(429.5,449.9)" stroke="none" fill="black" font-family="Arial" font-size="12.00"  text-anchor="end">
		<text><tspan font-family="Arial" >pages+cached+noexternal+nofonts</tspan></text>
	</g>
</g>
<g fill="none" color="black" stroke="currentColor" stroke-width="1.00" stroke-linecap="butt" stroke-linejoin="miter">
	<path stroke='rgb(  0, 158, 115)'  d='M437.8,446.0 L480.0,446.0 M45.6,384.8 L51.4,305.7 L57.1,286.7 L62.9,278.9 L68.6,268.3 L74.4,258.4
		L80.1,256.0 L85.9,247.9 L91.6,244.7 L97.4,241.8 L103.1,241.1 L108.9,239.4 L114.6,236.6 L120.4,236.4
		L126.1,236.1 L131.9,235.5 L137.6,232.4 L143.4,232.1 L149.1,231.8 L154.9,230.9 L160.6,230.7 L166.4,228.3
		L172.1,224.3 L177.9,224.3 L183.6,224.1 L189.4,223.7 L195.1,221.3 L200.9,221.0 L206.6,220.7 L212.4,218.0
		L218.1,217.3 L223.9,216.5 L229.6,216.1 L235.4,215.6 L241.2,214.7 L246.9,213.7 L252.7,211.6 L258.4,211.6
		L264.2,210.7 L269.9,209.9 L275.7,209.8 L281.4,208.4 L287.2,207.5 L292.9,207.1 L298.7,205.9 L304.4,204.8
		L310.2,204.4 L315.9,203.8 L321.7,203.3 L327.4,200.6 L333.2,199.9 L338.9,196.4 L344.7,196.3 L350.4,194.2
		L356.2,193.4 L361.9,193.3 L367.7,189.6 L373.4,188.2 L379.2,188.1 L384.9,187.5 L390.7,185.7 L396.4,185.4
		L402.2,184.3 L407.9,183.4 L413.7,182.1 L419.4,180.3 L425.2,178.9 L431.0,178.8 L436.7,176.7 L442.5,175.2
		L448.2,174.0 L454.0,173.4 L459.7,172.3 L465.5,168.9 L471.2,167.2 L477.0,166.8 L482.7,165.0 L488.5,163.9
		L494.2,163.6 L500.0,161.7 L505.7,158.4 L511.5,156.9 L517.2,155.9 L523.0,154.5 L528.7,152.1 L534.5,148.4
		L540.2,148.4 L546.0,147.8 L551.7,147.6 L557.5,147.2 L563.2,146.6 L569.0,140.7 L574.7,137.4 L580.5,133.6
		L586.2,122.5 L592.0,120.8 L597.7,105.5 L603.5,98.8 L609.2,81.7 L615.0,25.3  '/></g>
	</g>
	<g id="gnuplot_plot_3" ><title>score p10=1282</title>
<g fill="none" color="black" stroke="currentColor" stroke-width="1.00" stroke-linecap="butt" stroke-linejoin="miter">
	<g transform="translate(429.5,467.9)" stroke="none" fill="black" font-family="Arial" font-size="12.00"  text-anchor="end">
		<text><tspan font-family="Arial" >score p10=1282</tspan></text>
	</g>
</g>
<g fill="none" color="black" stroke="currentColor" stroke-width="1.00" stroke-linecap="butt" stroke-linejoin="miter">
	<path stroke='rgb( 86, 180, 233)'  d='M437.8,464.0 L480.0,464.0  '/></g>
	</g>
	<g id="gnuplot_plot_4" ><title>score median=3500</title>
<g fill="none" color="black" stroke="currentColor" stroke-width="1.00" stroke-linecap="butt" stroke-linejoin="miter">
	<g transform="translate(429.5,485.9)" stroke="none" fill="black" font-family="Arial" font-size="12.00"  text-anchor="end">
		<text><tspan font-family="Arial" >score median=3500</tspan></text>
	</g>
</g>
<g fill="none" color="black" stroke="currentColor" stroke-width="1.00" stroke-linecap="butt" stroke-linejoin="miter">
	<path stroke='rgb(230, 159,   0)'  d='M437.8,482.0 L480.0,482.0  '/></g>
	</g>
<g fill="none" color="#FFFFFF" stroke="rgb(230, 159,   0)" stroke-width="2.00" stroke-linecap="butt" stroke-linejoin="miter">
</g>
<g fill="none" color="black" stroke="currentColor" stroke-width="2.00" stroke-linecap="butt" stroke-linejoin="miter">
</g>
<g fill="none" color="black" stroke="black" stroke-width="1.00" stroke-linecap="butt" stroke-linejoin="miter">
</g>
<g fill="none" color="black" stroke="currentColor" stroke-width="1.00" stroke-linecap="butt" stroke-linejoin="miter">
	<path stroke='black'  d='M45.6,18.1 L45.6,392.0 L615.0,392.0 L615.0,18.1 L45.6,18.1 Z  '/></g>
<g fill="none" color="black" stroke="currentColor" stroke-width="1.00" stroke-linecap="butt" stroke-linejoin="miter">
</g>
</g>
</svg>
